X: 1
T: SPIRITS OF WHISKY -- JIG
B: Ryan's Mammoth Collection of Fiddle Tunes
R: jig
M: 6/8
L: 1/8
Z: Contributed 20000421033338 by John Chambers jcsd:world.std.com
K: Ador
(uB/d/) \
| "4"eAA eAA | BGG BGG | eAA eAA | def gdB |
| eAA eAA | BGG BGG | def gdB | B(.G.G) G2 :|
|: ug \
| eaa eaa | egg egg | eaa eaa | def gdB |
| eaa eaa | egg egg | def gdB | B(.A.A) A2 :|
